X: 2
T: Ap Shenkin
M: 6/8
L: 1/8
R: Jig
Z: Transcribed and edited by Flynn Titford-Mock
Z: abcs's:AK/Fiddler's Companion
Z: 2014 John Chambers <jc:trillian.mit.edu>
B: Goulding "Twenty-four Country Dances For the Year 1808", London 1808 p._ #_
F: http://petrucci.mus.auth.gr/imglnks/usimg/7/7e/IMSLP351864-PMLP71783-goulding_24_dances_1808.pdf
K: G
% - - - - - - - - - - - - - - - - - - - - - - - - - - - - -
d/c/ | B2B Bgf | {f}e2 e efg | ded dcB | BAA A2 d/c/ | B2B Bgf | e2 e efg |
ded cBA | G2G G2 :|| g/a/ | b2g a2f | gfe dcB | cde dgB | BAA A2 g/a/ |
b2g a2f | gfe agf | bag fge | dgf edc | B2B Bgf | {f}e2e efg |
ded dcB | BAA A2 d/c/ | B2B Bgf | e2 e efg | ded cBA | G2G G2 ||
% - - - - - - - - - - Dance description - - - - - - - - - -
%%begintext align
%% 1st Lady set to the 2d Gent: & turn round with both hands, the
%% 1st Gent: do the same :||: lead down the middle up again and
%% poussette with the 2d Cu: .
%%endtext

%%sep 1 1 500
